X:1
T:Death Is Only a Dream
T:Death Is Only a Dream
T:Adoniram Judson Buchanan
T:Charles Walker Ray, 1892
T:Public Domain Courtesy of the Cyber Hymnal™
T:Public Domain Courtesy of the Cyber Hymnal™
C:Adoniram Judson Buchanan
Z:Public Domain
Z:Courtesy of the Cyber Hymnal™
%%score ( 1 2 ) ( 3 4 )
L:1/8
Q:1/4=86
M:4/4
K:Bb
V:1 treble 
V:2 treble 
V:3 bass 
V:4 bass 
V:1
 [DF][^C=E][DF][Fd] [F=c][FB] | [Gc][GB][EG] [DF]2 [DF]/[DF]/ | [DB]>[DB] [DB][Fd] [Fc][FB] | %3
w: 1.~Sad- ly we sing, and with|trem- u- lous breath, As we|stand by the mys- tic- al|
w: 2.~Why should we weep when the|wea- ry ones rest In the|bo- som of Je- sus su-|
w: 3.~Naught in the riv- er the|saints should ap- pall, Tho’ it|fright- ful- ly dis- mal may|
w: 4.~O- ver the tur- bid and|on- rush- ing tide Doth the|light of e- ter- ni- ty|
 [Fc]3- [Fc]2 F/[EF]/ | [DF][^C=E][DF][Fd] [F=c][FB] | [Gc][GB][EG] [DF]2 [DF] | %6
w: stream, * In the|val- ley and by the dark|riv- er of death, And|
w: preme, * In the|man- sions of glo- ry pre-|pared for the blest? For|
w: seem; * In the|arms of their Sav- ior no|ill can be- fall, They|
w: gleam; * And the|ran- somed the dark- ness and|storm shall out- ride, To|
 [DF][FB][Gc][Fd]>"^riten."[DB][Ec] | [DB]3- [DB]2 ||"^Refrain" [DF]>[DF] [DF] [DF]3 | %9
w: yet ’tis no more than a|dream. *||
w: death is no more than a|dream. *|On- ly a dream,|
w: find it no more than a|dream. *||
w: wake with glad smiles from their|dream. *||
 [EG]>[FA] [EB] [DF]2 [DF] | [DB]>[DB] [DB][Fd]>[Fc][FB] | [Fc]3- [Fc]2 F | %12
w: |||
w: on- ly a dream, And|glo- ry be- yond the dark|stream; * How|
w: |||
w: |||
 [Fd]!fermata![Fd]>[Ec][Ec]<!fermata![DB][DF] | [EG]!fermata![GB]>[EG][EG]<!fermata![DF][DF] | %14
w: ||
w: peace- ful the slum- ber, How|hap- py the wak- ing; For|
w: ||
w: ||
 ([DF]!fermata![FB])[Gc]!fermata![Fd]>[DB][Ec] | [DB]6 |] %16
w: ||
w: death * is on- ly a|dream.|
w: ||
w: ||
V:2
 x6 | x6 | x6 | x5 F/ x/ | x6 | x6 | x6 | x5 || x6 | x6 | x6 | x5 F | x6 | x6 | x6 | x6 |] %16
V:3
 [B,,B,][B,,B,][B,,B,][B,,B,] [C,A,][D,B,] | [E,B,][E,B,][E,B,] [B,,B,]2 [B,,B,]/[B,,B,]/ | %2
 [B,,F,]>[B,,F,] [B,,F,][B,,B,] [C,A,][D,B,] | [F,A,]3- [F,A,]2 [F,A,]/[F,A,]/ | %4
 [B,,B,][B,,B,][B,,B,][B,,B,] [C,A,][D,B,] | [E,B,][E,B,][E,B,] [B,,B,]2 [B,,B,] | %6
 [B,,B,][D,B,][E,B,][F,B,]>[F,B,][F,A,] | [B,,B,]3- [B,,B,]2 || [B,,B,]>[B,,B,] [B,,B,] [B,,B,]3 | %9
 [E,B,]>[E,B,] [G,,B,] [B,,B,]2 [B,,B,] | [B,,F,]>[B,,F,] [B,,F,][B,,B,]>[C,A,][D,B,] | %11
 [F,A,]3- [F,A,]2 [F,A,] | [F,B,]!fermata![F,B,]>[F,A,][B,,B,]<!fermata![B,,B,][B,,B,] | %13
 [E,B,]!fermata![E,B,]>[E,B,][B,,B,]<!fermata![B,,B,][B,,B,] | B,2 [E,B,][F,B,]>[F,B,][F,A,] | %15
 [B,,B,]6 |] %16
V:4
 x6 | x6 | x6 | x6 | x6 | x6 | x6 | x5 || x6 | x6 | x6 | x6 | x6 | x6 | (B,,D,) x4 | x6 |] %16

